public/img/J.construct.svg

<svg width="214" height="28" viewBox="0 0 214 28" fill="none" xmlns="http://www.w3.org/2000/svg">
<path d="M5.03662 27.8477C3.33339 27.8477 1.73236 27.6093 0.233521 27.1324C0.233521 26.6214 0.352746 25.9061 0.591198 24.9863C0.82965 24.0325 1.1192 23.232 1.45984 22.5848C2.58397 23.5386 3.67404 24.305 4.73004 24.8841C5.8201 25.4292 6.72281 25.7017 7.43817 25.7017C7.91507 25.361 8.25571 24.816 8.4601 24.0666C8.69855 23.3172 8.85184 22.0738 8.91997 20.3365C8.9881 18.5652 9.02217 15.7548 9.02217 11.9056C9.02217 5.84207 8.68152 1.97574 8.00023 0.306583C8.91997 0.102194 9.85675 0 10.8106 0C11.6962 0 12.6671 0.102194 13.7231 0.306583C13.4846 2.58891 13.3654 7.69858 13.3654 15.6356C13.3654 23.777 10.5891 27.8477 5.03662 27.8477Z" fill="black" fill-opacity="0.3"/>
<path d="M21.784 28.001C20.6939 26.6385 19.4676 25.4121 18.105 24.3221C19.161 22.9595 20.3873 21.7161 21.784 20.592C22.7037 21.7161 23.93 22.9595 25.4629 24.3221C24.2366 25.7868 23.0103 27.0132 21.784 28.001Z" fill="black" fill-opacity="0.3"/>
<path d="M37.9797 27.7966C35.2204 27.7966 33.0914 26.911 31.5926 25.1396C30.0937 23.3342 29.3443 20.7794 29.3443 17.4751C29.3443 15.2268 29.7871 13.2341 30.6728 11.4968C31.5926 9.72542 32.87 8.34581 34.5051 7.35794C36.1402 6.37007 37.9967 5.87613 40.0746 5.87613C42.4591 5.87613 44.486 6.2849 46.1551 7.10245C46.1551 7.68155 45.9848 8.43097 45.6442 9.35071C45.3376 10.2364 44.9799 11.0028 44.5711 11.6501C43.2086 10.4919 41.9141 9.60619 40.6878 8.99303C39.4615 8.34581 38.4395 8.02219 37.622 8.02219C36.6001 8.60129 35.7484 9.64026 35.0671 11.1391C34.3859 12.6039 34.0452 14.2219 34.0452 15.9933C34.0452 18.9228 34.5051 21.0178 35.4248 22.2782C36.3786 23.5386 37.9456 24.1688 40.1257 24.1688C42.6124 24.1688 44.7244 23.5386 46.4617 22.2782L46.8705 23.1468C45.8826 24.5435 44.5711 25.6676 42.9361 26.5192C41.301 27.3708 39.6488 27.7966 37.9797 27.7966Z" fill="black" fill-opacity="0.3"/>
<path d="M59.7014 27.7966C56.9081 27.7966 54.6598 26.8428 52.9566 24.9352C51.2534 23.0276 50.4018 20.5239 50.4018 17.424C50.4018 15.1757 50.8616 13.183 51.7814 11.4457C52.7352 9.67432 54.0467 8.31174 55.7158 7.35794C57.4191 6.37007 59.3437 5.87613 61.4898 5.87613C63.3974 5.87613 65.0836 6.31897 66.5483 7.20465C68.0131 8.05626 69.1373 9.26555 69.9207 10.8325C70.7383 12.3995 71.1471 14.2049 71.1471 16.2488C71.1471 18.497 70.6531 20.5068 69.6653 22.2782C68.7114 24.0155 67.3659 25.3781 65.6286 26.3659C63.8913 27.3197 61.9156 27.7966 59.7014 27.7966ZM60.6211 25.6506C62.5628 25.6506 64.0787 25.0034 65.1687 23.7089C66.2588 22.3804 66.8038 20.5239 66.8038 18.1394C66.8038 16.0274 66.3099 14.2049 65.322 12.672C64.3342 11.1391 62.9716 10.1001 61.2343 9.5551C59.2585 9.5551 57.6745 10.2364 56.4823 11.599C55.3241 12.9275 54.745 14.7329 54.745 17.0152C54.745 19.6723 55.29 21.7843 56.3801 23.3512C57.5042 24.8841 58.9179 25.6506 60.6211 25.6506Z" fill="black" fill-opacity="0.3"/>
<path d="M81.0706 27.5412C80.3553 27.5412 79.4015 27.439 78.2092 27.2346C78.4476 23.8281 78.5669 20.2003 78.5669 16.351C78.5669 14.4774 78.4987 13.0467 78.3625 12.0588C78.2603 11.071 78.0729 10.2875 77.8004 9.70839C77.562 9.12929 77.1532 8.53316 76.5741 7.92C77.1191 7.27278 77.6982 6.8129 78.3114 6.54039C78.9245 6.23381 79.4866 6.08052 79.9976 6.08052C81.803 6.08052 82.842 7.10245 83.1145 9.14632C84.0002 8.12439 85.0391 7.32387 86.2314 6.74478C87.4577 6.16568 88.7011 5.87613 89.9614 5.87613C93.947 5.87613 95.9398 8.22658 95.9398 12.9275L95.8376 16.1466C95.7354 17.407 95.6843 18.5481 95.6843 19.5701C95.6843 23.0787 96.042 25.6335 96.7573 27.2346C95.8035 27.439 94.9008 27.5412 94.0492 27.5412C93.1635 27.5412 92.1416 27.439 90.9834 27.2346C91.2218 23.1128 91.3411 18.6503 91.3411 13.8472C91.3411 12.4846 91.0685 11.5138 90.5235 10.9347C89.9785 10.3216 89.0758 10.015 87.8154 10.015C85.9418 10.015 84.3919 10.4067 83.1656 11.1902L83.1145 13.3874C83.0123 15.1246 82.9612 17.1856 82.9612 19.5701C82.9612 23.1468 83.3018 25.7017 83.9831 27.2346C82.9612 27.439 81.9903 27.5412 81.0706 27.5412Z" fill="black" fill-opacity="0.3"/>
<path d="M109.605 27.7966C106.403 27.7966 103.831 27.1835 101.889 25.9572C101.889 25.3099 101.957 24.6968 102.094 24.1177C102.23 23.5386 102.468 22.9084 102.809 22.2271C103.456 23.0787 104.308 23.743 105.364 24.2199C106.454 24.6968 107.612 24.9352 108.839 24.9352C112.075 24.9352 113.693 24.0325 113.693 22.2271C113.693 21.4777 113.318 20.8475 112.569 20.3365C111.853 19.8256 110.746 19.2465 109.247 18.5992C107.748 17.9179 106.539 17.3218 105.619 16.8108C104.7 16.2658 103.899 15.5334 103.218 14.6137C102.537 13.6939 102.196 12.5698 102.196 11.2413C102.196 9.64026 102.894 8.34581 104.291 7.35794C105.722 6.37007 107.578 5.87613 109.86 5.87613C112.892 5.87613 115.481 6.2849 117.627 7.10245C117.627 7.64749 117.474 8.37987 117.167 9.29961C116.861 10.1853 116.486 10.9858 116.043 11.7012C114.817 10.577 113.625 9.69136 112.466 9.04413C111.308 8.36284 110.337 8.02219 109.554 8.02219C108.736 8.19252 108.072 8.51613 107.561 8.99303C107.05 9.43587 106.795 9.92981 106.795 10.4748C106.795 11.4286 107.186 12.1951 107.97 12.7742C108.753 13.3533 109.98 14.0346 111.649 14.8181C113.045 15.4312 114.187 16.0103 115.072 16.5554C115.992 17.0663 116.759 17.7646 117.372 18.6503C118.019 19.5019 118.343 20.5409 118.343 21.7672C118.343 23.6748 117.576 25.1566 116.043 26.2126C114.544 27.2686 112.398 27.7966 109.605 27.7966Z" fill="black" fill-opacity="0.3"/>
<path d="M128.136 27.6945C126.944 27.6945 126.109 27.4049 125.633 26.8258C125.156 26.2126 124.917 25.1566 124.917 23.6578C124.917 22.6018 124.951 20.8815 125.019 18.497C125.088 15.9081 125.122 13.7621 125.122 12.0588C125.122 11.2413 125.088 10.4578 125.019 9.70839C123.657 9.70839 122.737 9.62323 122.26 9.4529C121.817 9.24852 121.596 8.90787 121.596 8.43097C123.81 7.17058 125.905 5.45032 127.881 3.2702L129.107 3.42349C129.243 4.58168 129.329 5.77394 129.363 7.00026C131.645 6.96619 133.314 6.82994 134.37 6.59149C134.37 7.30684 134.302 7.93703 134.166 8.48207C134.029 9.0271 133.808 9.58916 133.501 10.1683C132.514 9.79355 131.1 9.58916 129.26 9.5551C129.158 11.088 129.107 12.689 129.107 14.3582C129.107 18.5481 129.363 21.7332 129.874 23.9133C131.441 23.8111 132.701 23.6237 133.655 23.3512L133.961 24.5265C133.348 25.4803 132.497 26.2467 131.407 26.8258C130.316 27.4049 129.226 27.6945 128.136 27.6945Z" fill="black" fill-opacity="0.3"/>
<path d="M143.347 27.5412C142.496 27.5412 141.508 27.439 140.384 27.2346C140.622 23.8281 140.741 20.2003 140.741 16.351C140.741 14.4774 140.673 13.0467 140.537 12.0588C140.435 11.071 140.247 10.2875 139.975 9.70839C139.736 9.12929 139.328 8.53316 138.748 7.92C139.294 7.30684 139.89 6.84697 140.537 6.54039C141.184 6.23381 141.763 6.08052 142.274 6.08052C144.216 6.08052 145.238 7.3409 145.34 9.86168C146.226 8.77161 147.162 7.88594 148.15 7.20465C149.172 6.48929 150.33 5.96129 151.625 5.62065C151.863 6.16568 152.068 6.94916 152.238 7.9711C152.442 8.99303 152.545 9.92981 152.545 10.7814C152.136 10.7133 151.557 10.6792 150.807 10.6792C149.717 10.6792 148.678 10.8155 147.69 11.088C146.703 11.3265 145.902 11.633 145.289 12.0077L145.238 13.5917C145.17 15.84 145.136 17.8328 145.136 19.5701C145.136 23.1468 145.476 25.7017 146.158 27.2346C145.136 27.439 144.199 27.5412 143.347 27.5412Z" fill="black" fill-opacity="0.3"/>
<path d="M162.656 27.7966C158.739 27.7966 156.78 25.4462 156.78 20.7453L156.882 17.5262L156.984 14.1027C156.984 10.7644 156.661 8.37987 156.014 6.94916C157.683 6.26787 159.556 5.92723 161.634 5.92723C161.43 10.0831 161.328 14.8521 161.328 20.2343C161.328 21.5969 161.617 22.6018 162.196 23.249C162.775 23.8622 163.712 24.1688 165.007 24.1688C166.676 24.1688 168.192 23.777 169.554 22.9935C169.554 20.7112 169.605 18.6844 169.708 16.913L169.759 14.1027C169.759 10.7644 169.435 8.37987 168.788 6.94916C170.457 6.26787 172.348 5.92723 174.46 5.92723C174.323 8.27768 174.187 11.071 174.051 14.3071C173.915 17.5092 173.846 19.6552 173.846 20.7453C173.846 21.9716 173.983 22.9425 174.255 23.6578C174.528 24.3732 175.056 25.1396 175.839 25.9572C174.613 26.9791 173.25 27.5923 171.751 27.7966C170.729 27.0813 170.065 26.0594 169.759 24.7308C168.839 25.6846 167.749 26.4341 166.488 26.9791C165.262 27.5241 163.985 27.7966 162.656 27.7966Z" fill="black" fill-opacity="0.3"/>
<path d="M188.875 27.7966C186.116 27.7966 183.987 26.911 182.488 25.1396C180.989 23.3342 180.239 20.7794 180.239 17.4751C180.239 15.2268 180.682 13.2341 181.568 11.4968C182.488 9.72542 183.765 8.34581 185.4 7.35794C187.035 6.37007 188.892 5.87613 190.97 5.87613C193.354 5.87613 195.381 6.2849 197.05 7.10245C197.05 7.68155 196.88 8.43097 196.539 9.35071C196.233 10.2364 195.875 11.0028 195.466 11.6501C194.104 10.4919 192.809 9.60619 191.583 8.99303C190.357 8.34581 189.335 8.02219 188.517 8.02219C187.495 8.60129 186.644 9.64026 185.962 11.1391C185.281 12.6039 184.94 14.2219 184.94 15.9933C184.94 18.9228 185.4 21.0178 186.32 22.2782C187.274 23.5386 188.841 24.1688 191.021 24.1688C193.508 24.1688 195.62 23.5386 197.357 22.2782L197.766 23.1468C196.778 24.5435 195.466 25.6676 193.831 26.5192C192.196 27.3708 190.544 27.7966 188.875 27.7966Z" fill="black" fill-opacity="0.3"/>
<path d="M207.326 27.6945C206.134 27.6945 205.299 27.4049 204.823 26.8258C204.346 26.2126 204.107 25.1566 204.107 23.6578C204.107 22.6018 204.141 20.8815 204.209 18.497C204.278 15.9081 204.312 13.7621 204.312 12.0588C204.312 11.2413 204.278 10.4578 204.209 9.70839C202.847 9.70839 201.927 9.62323 201.45 9.4529C201.007 9.24852 200.786 8.90787 200.786 8.43097C203 7.17058 205.095 5.45032 207.071 3.2702L208.297 3.42349C208.433 4.58168 208.519 5.77394 208.553 7.00026C210.835 6.96619 212.504 6.82994 213.56 6.59149C213.56 7.30684 213.492 7.93703 213.356 8.48207C213.219 9.0271 212.998 9.58916 212.692 10.1683C211.704 9.79355 210.29 9.58916 208.45 9.5551C208.348 11.088 208.297 12.689 208.297 14.3582C208.297 18.5481 208.553 21.7332 209.064 23.9133C210.631 23.8111 211.891 23.6237 212.845 23.3512L213.151 24.5265C212.538 25.4803 211.687 26.2467 210.597 26.8258C209.506 27.4049 208.416 27.6945 207.326 27.6945Z" fill="black" fill-opacity="0.3"/>
</svg>

<svg width="214" height="28" fill="none" xmlns="http://www.w3.org/2000/svg"><path d="M5.037 27.848c-1.704 0-3.305-.239-4.803-.716 0-.51.119-1.226.357-2.146.239-.954.528-1.754.869-2.401 1.124.954 2.214 1.72 3.27 2.3 1.09.544 1.993.817 2.708.817.477-.341.818-.886 1.022-1.635.239-.75.392-1.993.46-3.73.068-1.772.102-4.582.102-8.431 0-6.064-.34-9.93-1.022-11.6C8.92.103 9.857 0 10.81 0c.886 0 1.857.102 2.913.307-.238 2.282-.358 7.392-.358 15.329 0 8.141-2.776 12.212-8.328 12.212zm16.747.153a23.486 23.486 0 00-3.679-3.679 22.388 22.388 0 013.679-3.73c.92 1.124 2.146 2.367 3.679 3.73-1.226 1.465-2.453 2.691-3.679 3.679zm16.196-.204c-2.76 0-4.889-.886-6.387-2.657-1.5-1.806-2.249-4.36-2.249-7.665 0-2.248.443-4.24 1.329-5.978.92-1.772 2.197-3.151 3.832-4.14 1.635-.987 3.492-1.48 5.57-1.48 2.384 0 4.411.408 6.08 1.225 0 .58-.17 1.329-.51 2.249-.307.885-.665 1.652-1.074 2.3-1.362-1.16-2.657-2.045-3.883-2.658-1.227-.647-2.248-.97-3.066-.97-1.022.578-1.874 1.617-2.555 3.116-.681 1.465-1.022 3.083-1.022 4.854 0 2.93.46 5.025 1.38 6.285.954 1.26 2.52 1.89 4.7 1.89 2.487 0 4.6-.63 6.337-1.89l.408.869c-.987 1.397-2.299 2.52-3.934 3.372-1.635.852-3.287 1.278-4.956 1.278zm21.721 0c-2.793 0-5.041-.954-6.744-2.862-1.704-1.907-2.555-4.411-2.555-7.511 0-2.248.46-4.241 1.38-5.978.953-1.772 2.265-3.134 3.934-4.088 1.703-.988 3.628-1.482 5.774-1.482 1.907 0 3.594.443 5.058 1.329 1.465.851 2.59 2.06 3.373 3.627.817 1.567 1.226 3.373 1.226 5.417 0 2.248-.494 4.258-1.482 6.03a10.36 10.36 0 01-4.036 4.087c-1.738.954-3.713 1.43-5.928 1.43zm.92-2.146c1.942 0 3.458-.648 4.548-1.942 1.09-1.329 1.635-3.185 1.635-5.57 0-2.112-.494-3.934-1.482-5.467-.988-1.533-2.35-2.572-4.088-3.117-1.976 0-3.56.681-4.752 2.044-1.158 1.329-1.737 3.134-1.737 5.416 0 2.657.545 4.77 1.635 6.336 1.124 1.533 2.538 2.3 4.241 2.3zm20.449 1.89c-.715 0-1.668-.102-2.86-.306.238-3.407.357-7.035.357-10.884 0-1.874-.068-3.304-.204-4.292-.103-.988-.29-1.771-.563-2.35-.238-.58-.647-1.176-1.226-1.789.545-.647 1.124-1.107 1.737-1.38.613-.306 1.176-.46 1.687-.46 1.805 0 2.844 1.022 3.117 3.066a9.695 9.695 0 013.116-2.401c1.227-.58 2.47-.869 3.73-.869 3.986 0 5.979 2.35 5.979 7.051l-.102 3.22a42.71 42.71 0 00-.154 3.423c0 3.509.358 6.064 1.073 7.665-.954.204-1.856.306-2.708.306-.886 0-1.907-.102-3.066-.306.239-4.122.358-8.585.358-13.388 0-1.362-.272-2.333-.817-2.912-.546-.613-1.448-.92-2.709-.92-1.873 0-3.423.392-4.65 1.175l-.05 2.197c-.103 1.738-.154 3.799-.154 6.183 0 3.577.34 6.132 1.022 7.665a14.867 14.867 0 01-2.912.306zm28.535.256c-3.202 0-5.774-.614-7.716-1.84 0-.647.068-1.26.205-1.84.136-.578.374-1.209.715-1.89.647.852 1.499 1.516 2.555 1.993a8.573 8.573 0 003.475.715c3.236 0 4.854-.902 4.854-2.708 0-.75-.375-1.38-1.124-1.89-.716-.511-1.823-1.09-3.322-1.738-1.499-.681-2.708-1.277-3.628-1.788a8.157 8.157 0 01-2.401-2.197c-.681-.92-1.022-2.044-1.022-3.373 0-1.6.698-2.895 2.095-3.883 1.431-.988 3.287-1.482 5.569-1.482 3.032 0 5.621.409 7.767 1.226 0 .545-.153 1.278-.46 2.198a11.97 11.97 0 01-1.124 2.401c-1.226-1.124-2.418-2.01-3.577-2.657-1.158-.681-2.129-1.022-2.912-1.022-.818.17-1.482.494-1.993.971-.511.443-.766.937-.766 1.482 0 .954.391 1.72 1.175 2.3.783.578 2.01 1.26 3.679 2.043 1.396.613 2.538 1.192 3.423 1.737a6.767 6.767 0 012.3 2.095c.647.852.971 1.89.971 3.117 0 1.908-.767 3.39-2.3 4.446-1.499 1.056-3.645 1.584-6.438 1.584zm18.531-.102c-1.192 0-2.027-.29-2.503-.87-.477-.612-.716-1.668-.716-3.167 0-1.056.034-2.777.102-5.161.069-2.589.103-4.735.103-6.438 0-.818-.034-1.601-.103-2.35-1.362 0-2.282-.086-2.759-.256-.443-.204-.664-.545-.664-1.022 2.214-1.26 4.309-2.98 6.285-5.16l1.226.152A40.23 40.23 0 01129.363 7c2.282-.034 3.951-.17 5.007-.409 0 .716-.068 1.346-.204 1.891a7.536 7.536 0 01-.665 1.686c-.987-.374-2.401-.579-4.241-.613a72.412 72.412 0 00-.153 4.803c0 4.19.256 7.375.767 9.555 1.567-.102 2.827-.29 3.781-.562l.306 1.175c-.613.954-1.464 1.72-2.554 2.3-1.091.579-2.181.869-3.271.869zm15.211-.154c-.851 0-1.839-.102-2.963-.306.238-3.407.357-7.035.357-10.884 0-1.874-.068-3.304-.204-4.292-.102-.988-.29-1.771-.562-2.35-.239-.58-.647-1.176-1.227-1.789.546-.613 1.142-1.073 1.789-1.38.647-.306 1.226-.46 1.737-.46 1.942 0 2.964 1.26 3.066 3.782.886-1.09 1.822-1.976 2.81-2.657 1.022-.716 2.18-1.244 3.475-1.584.238.545.443 1.328.613 2.35.204 1.022.307 1.959.307 2.81-.409-.068-.988-.102-1.738-.102-1.09 0-2.129.136-3.117.409-.987.239-1.788.545-2.401.92l-.051 1.584a200.238 200.238 0 00-.102 5.978c0 3.577.34 6.132 1.022 7.665-1.022.204-1.959.306-2.811.306zm19.309.256c-3.917 0-5.876-2.35-5.876-7.052l.102-3.219.102-3.423c0-3.339-.323-5.723-.97-7.154 1.669-.681 3.542-1.022 5.62-1.022-.204 4.156-.306 8.925-.306 14.307 0 1.363.289 2.368.868 3.015.579.613 1.516.92 2.811.92 1.669 0 3.185-.392 4.547-1.175 0-2.283.051-4.31.154-6.081l.051-2.81c0-3.339-.324-5.723-.971-7.154 1.669-.681 3.56-1.022 5.672-1.022-.137 2.35-.273 5.144-.409 8.38-.136 3.202-.205 5.348-.205 6.438 0 1.227.137 2.197.409 2.913.273.715.801 1.482 1.584 2.3-1.226 1.021-2.589 1.634-4.088 1.839-1.022-.716-1.686-1.738-1.992-3.066-.92.954-2.01 1.703-3.271 2.248a9.333 9.333 0 01-3.832.818zm26.219 0c-2.759 0-4.888-.886-6.387-2.657-1.499-1.806-2.249-4.36-2.249-7.665 0-2.248.443-4.24 1.329-5.978.92-1.772 2.197-3.151 3.832-4.14 1.635-.987 3.492-1.48 5.57-1.48 2.384 0 4.411.408 6.08 1.225 0 .58-.17 1.329-.511 2.249-.306.885-.664 1.652-1.073 2.3-1.362-1.16-2.657-2.045-3.883-2.658-1.226-.647-2.248-.97-3.066-.97-1.022.578-1.873 1.617-2.555 3.116-.681 1.465-1.022 3.083-1.022 4.854 0 2.93.46 5.025 1.38 6.285.954 1.26 2.521 1.89 4.701 1.89 2.487 0 4.599-.63 6.336-1.89l.409.869c-.988 1.397-2.3 2.52-3.935 3.372-1.635.852-3.287 1.278-4.956 1.278zm18.451-.102c-1.192 0-2.027-.29-2.503-.87-.477-.612-.716-1.668-.716-3.167 0-1.056.034-2.777.102-5.161.069-2.589.103-4.735.103-6.438 0-.818-.034-1.601-.103-2.35-1.362 0-2.282-.086-2.759-.256-.443-.204-.664-.545-.664-1.022 2.214-1.26 4.309-2.98 6.285-5.16l1.226.152A40.23 40.23 0 01208.553 7c2.282-.034 3.951-.17 5.007-.409 0 .716-.068 1.346-.204 1.891a7.579 7.579 0 01-.664 1.686c-.988-.374-2.402-.579-4.242-.613a72.412 72.412 0 00-.153 4.803c0 4.19.256 7.375.767 9.555 1.567-.102 2.827-.29 3.781-.562l.306 1.175c-.613.954-1.464 1.72-2.554 2.3-1.091.579-2.181.869-3.271.869z" fill="#000" fill-opacity=".3"/></svg>
